icons/lines/gas-station.svg

<svg xmlns="http://www.w3.org/2000/svg" width="24" height="24" viewBox="0 0 24 24" fill="none" stroke="currentColor" stroke-width="2" stroke-linecap="round" stroke-linejoin="round" >
  <path d="M3.5 22V5C3.5 3 4.84 2 6.5 2H14.5C16.16 2 17.5 3 17.5 5V22H3.5Z"/>
  <path d="M2 22H19"/>
  <path d="M8.39 9.99998H12.62C13.66 9.99998 14.51 9.49999 14.51 8.10999V6.87999C14.51 5.48999 13.66 4.98999 12.62 4.98999H8.39C7.35 4.98999 6.5 5.48999 6.5 6.87999V8.10999C6.5 9.49999 7.35 9.99998 8.39 9.99998Z"/>
  <path d="M6.5 13H9.5"/>
  <path d="M17.5 16.01L22 16V10L20 9"/>
  </svg>

<svg xmlns="http://www.w3.org/2000/svg" width="24" height="24" viewBox="0 0 24 24" fill="none" stroke="currentColor" stroke-width="2" stroke-linecap="round" stroke-linejoin="round">
  <path d="M12.62 10c1.04 0 1.89-.5 1.89-1.89V6.88c0-1.39-.85-1.89-1.89-1.89H8.39c-1.04 0-1.89.5-1.89 1.89v1.23C6.5 9.5 7.35 10 8.39 10z" />
  <path d="M17.5 16.01 22 16v-6l-2-1" />
  <path d="M2 22h17" />
  <path d="M3.5 22V5c0-2 1.34-3 3-3h8c1.66 0 3 1 3 3v17" />
  <path d="M6.5 13h3" />
</svg>
